assets/img/icons/duotone-icons/Design/Pen-tool-vector.svg

<?xml version="1.0" encoding="UTF-8"?>
<svg width="24px" height="24px" viewBox="0 0 24 24" version="1.1" xmlns="http://www.w3.org/2000/svg" xmlns:xlink="http://www.w3.org/1999/xlink">
    <!-- Generator: Sketch 52.2 (67145) - http://www.bohemiancoding.com/sketch -->
    <title>Stockholm-icons / Design / Pen-tool-vector</title>
    <desc>Created with Sketch.</desc>
    <g id="Stockholm-icons-/-Design-/-Pen-tool-vector" stroke="none" stroke-width="1" fill="none" fill-rule="evenodd">
        <rect id="bound" x="0" y="0" width="24" height="24"></rect>
        <path d="M11,3 L11,11 C11,11.0862364 11.0109158,11.1699233 11.0314412,11.2497543 C10.4163437,11.5908673 10,12.2468125 10,13 C10,14.1045695 10.8954305,15 12,15 C13.1045695,15 14,14.1045695 14,13 C14,12.2468125 13.5836563,11.5908673 12.9685588,11.2497543 C12.9890842,11.1699233 13,11.0862364 13,11 L13,3 L17.7925828,12.5851656 C17.9241309,12.8482619 17.9331722,13.1559315 17.8173006,13.4262985 L15.1298744,19.6969596 C15.051085,19.8808016 14.870316,20 14.6703019,20 L9.32969808,20 C9.12968402,20 8.94891496,19.8808016 8.87012556,19.6969596 L6.18269936,13.4262985 C6.06682778,13.1559315 6.07586907,12.8482619 6.2074172,12.5851656 L11,3 Z" id="Combined-Shape" fill="#335EEA"></path>
        <path d="M10,21 L14,21 C14.5522847,21 15,21.4477153 15,22 L15,23 L9,23 L9,22 C9,21.4477153 9.44771525,21 10,21 Z" id="Rectangle-2" fill="#335EEA" opacity="0.3"></path>
    </g>
</svg>

<svg width="24" height="24" viewBox="0 0 24 24" xmlns="http://www.w3.org/2000/svg"><g fill="none" fill-rule="evenodd"><path d="M0 0h24v24H0z"/><path d="M11 3v8c0 .086.01.17.031.25a2 2 0 101.938 0c.02-.08.031-.164.031-.25V3l4.793 9.585a1 1 0 01.024.841l-2.687 6.271a.5.5 0 01-.46.303H9.33a.5.5 0 01-.46-.303l-2.687-6.27a1 1 0 01.024-.842L11 3z" fill="#335EEA"/><path d="M10 21h4a1 1 0 011 1v1H9v-1a1 1 0 011-1z" fill="#335EEA" opacity=".3"/></g></svg>
